X: 443
T: James My Thousand Treasures
N:"With expression" "2nd Setting" "collected by F.O'Neill"
N:Irish title: seamus mo .mile stor
B:O'Neill's 443
Z:Transcribed by henrik.norbeck@mailbox.swipnet.se
M:6/8
L:1/8
K:G
(B/A/) | G>AG Gge | dBG A2 B | G3 z2 (3d/e/f/ | gfe def |
agf e2 d | B3 z2 (3d/e/f/ | gfe def | agf e2 d |
B3 z2 (B/A/) | G>AG Gge | dBG A2 B | G3 z2 ||


